svgs/duotone/tower-broadcast.svg

<svg xmlns="http://www.w3.org/2000/svg" viewBox="0 0 576 512"><!--! Font Awesome Pro 6.3.0 by @fontawesome - https://fontawesome.com License - https://fontawesome.com/license (Commercial License) Copyright 2023 Fonticons, Inc. --><defs><style>.fa-secondary{opacity:.4}</style></defs><path class="fa-primary" d="M350 111.9C357.4 142.2 343.3 169.6 320 183.1v296.9c0 17.67-14.33 32-32 32s-32-14.33-32-32V183.1C236.1 172 224 151.6 224 128c0-39.87 36.45-71.22 77.84-62.55C325 70.31 344.4 88.92 350 111.9z"/><path class="fa-secondary" d="M160.9 59.01C149.3 52.6 134.7 56.76 128.3 68.39C117.6 87.6 112 109.4 112 131.4c0 19.03 4.031 37.44 11.98 54.62c4.047 8.777 12.73 13.93 21.8 13.93c3.375 0 6.797-.7187 10.05-2.219C167.9 192.2 173.1 177.1 167.5 165.9C162.5 155.1 160 143.5 160 131.4c0-13.93 3.547-27.69 10.25-39.81C176.7 80.04 172.5 65.42 160.9 59.01zM420.2 58.23c-12.03 5.562-17.28 19.81-11.72 31.84C413.5 100.9 416 112.5 416 124.6c0 13.94-3.547 27.69-10.25 39.81c-6.422 11.59-2.219 26.22 9.375 32.62c3.688 2.031 7.672 3 11.61 3c8.438 0 16.64-4.47 21.02-12.37C458.4 168.4 464 146.6 464 124.6c0-19.03-4.031-37.43-11.98-54.62C446.5 57.89 432.1 52.7 420.2 58.23zM62.61 2.363C46.17-4.32 27.58 3.676 20.95 20.02C7.047 54.36 0 90.69 0 127.1C0 165.3 7.047 201.7 20.95 236C25.98 248.5 37.97 256 50.63 256C54.61 256 58.69 255.3 62.61 253.7C79 247 86.91 228.4 80.27 212C69.47 185.3 64 157.1 64 128c0-29.06 5.469-57.3 16.27-83.99C86.91 27.64 79 8.988 62.61 2.363zM555 20.02c-6.609-16.41-25.23-24.31-41.66-17.66c-16.39 6.625-24.3 25.28-17.66 41.65C506.5 70.7 512 98.95 512 128c0 29.06-5.469 57.31-16.27 83.1C489.1 228.4 497 247 513.4 253.7C517.3 255.3 521.4 256 525.4 256c12.66 0 24.64-7.562 29.67-20C568.1 201.7 576 165.3 576 127.1C576 90.69 568.1 54.36 555 20.02z"/></svg>

<svg xmlns="http://www.w3.org/2000/svg" viewBox="0 0 576 512"><!-- Font Awesome Pro 6.0.0-alpha2 by @fontawesome - https://fontawesome.com License - https://fontawesome.com/license (Commercial License) --><defs><style>.fa-secondary{opacity:.4}</style></defs><path d="M160.875 59.016C149.312 52.609 134.672 56.766 128.25 68.391C117.625 87.609 112 109.418 112 131.445C112 150.477 116.031 168.883 123.984 186.07C128.031 194.848 136.719 200.004 145.781 200.004C149.156 200.004 152.578 199.285 155.828 197.785C167.859 192.223 173.109 177.977 167.547 165.945C162.547 155.102 160 143.477 160 131.445C160 117.512 163.547 103.762 170.25 91.641C176.672 80.047 172.469 65.422 160.875 59.016ZM420.172 58.234C408.141 63.797 402.891 78.047 408.453 90.078C413.453 100.918 416 112.543 416 124.57C416 138.508 412.453 152.258 405.75 164.383C399.328 175.977 403.531 190.598 415.125 197.004C418.813 199.035 422.797 200.004 426.734 200.004C435.172 200.004 443.375 195.535 447.75 187.633C458.375 168.414 464 146.602 464 124.57C464 105.543 459.969 87.141 452.016 69.953C446.453 57.891 432.141 52.703 420.172 58.234ZM62.609 2.363C46.172 -4.32 27.578 3.676 20.953 20.02C7.047 54.359 0 90.703 0 128.008C0 165.32 7.047 201.66 20.953 236C25.984 248.469 37.969 256 50.625 256C54.609 256 58.688 255.25 62.609 253.656C79 247.031 86.906 228.375 80.266 212.004C69.469 185.32 64 157.07 64 128.008C64 98.949 69.469 70.703 80.266 44.016C86.906 27.641 79 8.988 62.609 2.363ZM555.047 20.02C548.437 3.613 529.812 -4.289 513.391 2.363C497 8.988 489.094 27.641 495.734 44.016C506.531 70.703 512 98.949 512 128.008C512 157.07 506.531 185.32 495.734 212.004C489.094 228.375 497 247.031 513.391 253.656C517.328 255.25 521.391 256 525.375 256C538.031 256 550.016 248.438 555.047 236C568.953 201.66 576 165.32 576 128.008C576 90.703 568.953 54.359 555.047 20.02Z" class="fa-secondary"/><path d="M350.032 111.942C357.422 142.162 343.255 169.589 320 183.123V480C320 497.673 305.673 512 288 512H288C270.327 512 256 497.673 256 480V183.123C236.951 172.037 224 151.629 224 128C224 88.131 260.453 56.78 301.845 65.453C325.046 70.314 344.4 88.916 350.032 111.942Z" class="fa-primary"/></svg>
